public/img/iconoresistente.svg

<?xml version="1.0" standalone="no"?>
<!DOCTYPE svg PUBLIC "-//W3C//DTD SVG 1.0//EN" "http://www.w3.org/TR/2001/REC-SVG-20010904/DTD/svg10.dtd">
<svg xmlns="http://www.w3.org/2000/svg" xmlns:xlink="http://www.w3.org/1999/xlink" id="body_1" width="819" height="614">

<g transform="matrix(4.3330984 0 0 4.3330984 102.5 -0)">
	<g>
        <path d="M117.5 50.3C 117.4 50.3 117.3 50.3 117.1 50.3L117.1 50.3L108.5 48.899998C 107.6 48.699997 106.9 47.999996 106.7 47.1L106.7 47.1L105.299995 38.5C 105.1 37.3 105.899994 36.2 107.1 36C 108.299995 35.8 109.4 36.6 109.6 37.8L109.6 37.8L110.799995 44.899998L117.899994 46.1C 119.09999 46.3 119.799995 47.399998 119.7 48.6C 119.4 49.6 118.5 50.3 117.5 50.3z" stroke="#85A64C" stroke-width="2" fill="#85A64C" fill-rule="nonzero" />
        <path d="M118.9 73.2L95.8 73.2C 95.100006 73.2 94.5 72.899994 94.100006 72.399994C 93.700005 71.899994 93.600006 71.2 93.700005 70.49999L93.700005 70.49999L94.700005 66.799995L91.4 65.299995C 90.3 64.799995 89.9 63.499996 90.4 62.499996C 90.9 61.399998 92.200005 60.999996 93.200005 61.499996L93.200005 61.499996L98.100006 63.799995C 99.00001 64.2 99.50001 65.299995 99.3 66.299995L99.3 66.299995L98.600006 69.1L119.00001 69.1C 120.200005 69.1 121.100006 70.1 121.100006 71.2C 121.1 72.2 120.1 73.2 118.9 73.2z" stroke="#85A64C" stroke-width="2" fill="#85A64C" fill-rule="nonzero" />
        <path d="M124 80.3C 123.3 80.3 122.7 80 122.3 79.4L122.3 79.4L117.200005 72.3C 116.700005 71.600006 116.700005 70.600006 117.200005 69.8L117.200005 69.8L122.3 62.700005C 123 61.700005 124.3 61.500004 125.3 62.200005C 126.3 62.900005 126.5 64.200005 125.8 65.200005L125.8 65.200005L121.600006 71.100006L125.8 77.00001C 126.5 78.00001 126.3 79.30001 125.3 80.00001C 124.9 80.1 124.4 80.3 124 80.3z" stroke="#85A64C" stroke-width="2" fill="#85A64C" fill-rule="nonzero" />
        <path d="M108.9 97.5C 108.4 97.5 107.8 97.3 107.4 96.9L107.4 96.9L91 80.5C 90.5 80 90.3 79.3 90.4 78.6C 90.5 77.9 90.9 77.299995 91.6 77L91.6 77L94.799995 75.4L93.799995 71.5C 93.49999 70.4 94.2 69.2 95.299995 68.9C 96.399994 68.6 97.6 69.3 97.899994 70.4L97.899994 70.4L99.299995 76C 99.49999 77 99.1 78 98.2 78.4L98.2 78.4L96.2 79.4L110.5 93.700005C 111.3 94.50001 111.3 95.9 110.5 96.700005C 110 97.3 109.4 97.5 108.9 97.5z" stroke="#85A64C" stroke-width="2" fill="#85A64C" fill-rule="nonzero" />
        <path d="M107.4 106.1C 107.3 106.1 107.200005 106.1 107 106.1C 105.8 105.9 105.1 104.799995 105.2 103.6L105.2 103.6L106.6 95C 106.799995 94.1 107.5 93.4 108.4 93.2L108.4 93.2L117 91.799995C 118.2 91.6 119.3 92.399994 119.5 93.6C 119.7 94.799995 118.9 95.9 117.7 96.1L117.7 96.1L110.6 97.299995L109.4 104.399994C 109.3 105.4 108.4 106.1 107.4 106.1z" stroke="#85A64C" stroke-width="2" fill="#85A64C" fill-rule="nonzero" />
        <path d="M84.5 107.6C 83.3 107.6 82.4 106.6 82.4 105.5L82.4 105.5L82.4 82.3C 82.4 81.600006 82.700005 81 83.200005 80.600006C 83.700005 80.200005 84.4 80.100006 85.100006 80.200005L85.100006 80.200005L88.8 81.200005L90.700005 77.9C 91.3 76.9 92.600006 76.5 93.600006 77.1C 94.600006 77.7 95.00001 79 94.40001 80L94.40001 80L91.70001 84.7C 91.20001 85.5 90.20001 86 89.30001 85.7L89.30001 85.7L86.70001 85L86.70001 105.4C 86.7 106.6 85.7 107.6 84.5 107.6z" stroke="#85A64C" stroke-width="2" fill="#85A64C" fill-rule="nonzero" />
        <path d="M77.4 112.6C 76.700005 112.6 76.1 112.299995 75.700005 111.7C 75.00001 110.7 75.200005 109.399994 76.200005 108.7L76.200005 108.7L83.3 103.6C 84 103.1 85 103.1 85.8 103.6L85.8 103.6L92.9 108.7C 93.9 109.399994 94.1 110.7 93.4 111.7C 92.700005 112.7 91.4 112.899994 90.4 112.2L90.4 112.2L84.5 108L78.6 112.2C 78.3 112.5 77.9 112.6 77.4 112.6z" stroke="#85A64C" stroke-width="2" fill="#85A64C" fill-rule="nonzero" />
        <path d="M92.3 65.4C 92.100006 65.4 92 65.4 91.8 65.3C 91.100006 65.100006 90.5 64.600006 90.3 63.9L90.3 63.9L89 60.4L85.3 61.800003C 84.600006 62.000004 83.9 62.000004 83.3 61.600002C 82.700005 61.2 82.4 60.500004 82.4 59.800003L82.4 59.800003L82.4 36.6C 82.4 35.399998 83.4 34.5 84.5 34.5C 85.6 34.5 86.6 35.5 86.6 36.6L86.6 36.6L86.6 56.699997L89.5 55.6C 90 55.399998 90.6 55.399998 91.2 55.699997C 91.7 55.899998 92.1 56.399998 92.299995 56.899998L92.299995 56.899998L93.2 59.399998L107.399994 45.199997C 108.2 44.399998 109.59999 44.399998 110.399994 45.199997C 111.2 45.999996 111.2 47.399998 110.399994 48.199997L110.399994 48.199997L93.8 64.8C 93.4 65.2 92.9 65.4 92.3 65.4z" stroke="#85A64C" stroke-width="2" fill="#85A64C" fill-rule="nonzero" />
        <path d="M84.5 38.8C 84.1 38.8 83.6 38.7 83.3 38.399998L83.3 38.399998L76.200005 33.3C 75.200005 32.6 75.00001 31.3 75.700005 30.3C 76.4 29.3 77.700005 29.099998 78.700005 29.8L78.700005 29.8L84.600006 34L90.50001 29.8C 91.50001 29.099998 92.80001 29.3 93.50001 30.3C 94.200005 31.3 94.00001 32.6 93.00001 33.3L93.00001 33.3L85.90001 38.399998C 85.4 38.6 85 38.8 84.5 38.8z" stroke="#85A64C" stroke-width="2" fill="#85A64C" fill-rule="nonzero" />
        <path d="M68.9 117.5C 67.700005 117.5 66.8 116.5 66.8 115.4L66.8 115.4L66.8 26.7C 66.8 25.5 67.8 24.6 68.9 24.6C 70 24.6 71 25.6 71 26.7L71 26.7L71 115.399994C 71.1 116.6 70.1 117.5 68.9 117.5z" stroke="#85A64C" stroke-width="2" fill="#85A64C" fill-rule="nonzero" />
        <path d="M56.5 96.7C 42.3 96.7 30.8 85.2 30.8 71C 30.8 56.8 42.3 45.3 56.5 45.3C 57.7 45.3 58.6 46.3 58.6 47.399998C 58.6 48.499996 57.6 49.499996 56.5 49.499996C 44.7 49.499996 35.1 59.1 35.1 70.899994C 35.1 82.7 44.699997 92.299995 56.5 92.299995C 57.7 92.299995 58.6 93.299995 58.6 94.399994C 58.6 95.49999 57.7 96.7 56.5 96.7z" stroke="#85A64C" stroke-width="2" fill="#85A64C" fill-rule="nonzero" />
        <path d="M56.5 113.1C 55.3 113.1 54.4 112.1 54.4 111L54.4 111L54.4 102.1C 54.4 100.9 55.4 100 56.5 100C 57.6 100 58.6 101 58.6 102.1L58.6 102.1L58.6 111C 58.7 112.1 57.7 113.1 56.5 113.1z" stroke="#85A64C" stroke-width="2" fill="#85A64C" fill-rule="nonzero" />
        <path d="M56.5 113.1C 55.3 113.1 54.4 112.1 54.4 111L54.4 111L54.4 102.1C 54.4 100.9 55.4 100 56.5 100C 57.6 100 58.6 101 58.6 102.1L58.6 102.1L58.6 111C 58.7 112.1 57.7 113.1 56.5 113.1z" stroke="#85A64C" stroke-width="2" fill="#85A64C" fill-rule="nonzero" />
        <path d="M42.9 110.7C 42.7 110.7 42.4 110.7 42.2 110.6C 41.100002 110.2 40.5 109 40.9 107.9L40.9 107.9L43.9 99.6C 44.300003 98.5 45.5 97.9 46.600002 98.299995C 47.7 98.7 48.300003 99.899994 47.9 100.99999L47.9 100.99999L44.9 109.299995C 44.6 110.1 43.8 110.7 42.9 110.7z" stroke="#85A64C" stroke-width="2" fill="#85A64C" fill-rule="nonzero" />
        <path d="M56.5 113.1C 55.3 113.1 54.4 112.1 54.4 111L54.4 111L54.4 102.1C 54.4 100.9 55.4 100 56.5 100C 57.6 100 58.6 101 58.6 102.1L58.6 102.1L58.6 111C 58.7 112.1 57.7 113.1 56.5 113.1z" stroke="#85A64C" stroke-width="2" fill="#85A64C" fill-rule="nonzero" />
        <path d="M56.5 113.1C 55.3 113.1 54.4 112.1 54.4 111L54.4 111L54.4 102.1C 54.4 100.9 55.4 100 56.5 100C 57.6 100 58.6 101 58.6 102.1L58.6 102.1L58.6 111C 58.7 112.1 57.7 113.1 56.5 113.1z" stroke="#85A64C" stroke-width="2" fill="#85A64C" fill-rule="nonzero" />
        <path d="M56.5 113.1C 55.3 113.1 54.4 112.1 54.4 111L54.4 111L54.4 102.1C 54.4 100.9 55.4 100 56.5 100C 57.6 100 58.6 101 58.6 102.1L58.6 102.1L58.6 111C 58.7 112.1 57.7 113.1 56.5 113.1z" stroke="#85A64C" stroke-width="2" fill="#85A64C" fill-rule="nonzero" />
        <path d="M42.9 110.7C 42.7 110.7 42.4 110.7 42.2 110.6C 41.100002 110.2 40.5 109 40.9 107.9L40.9 107.9L43.9 99.6C 44.300003 98.5 45.5 97.9 46.600002 98.299995C 47.7 98.7 48.300003 99.899994 47.9 100.99999L47.9 100.99999L44.9 109.299995C 44.6 110.1 43.8 110.7 42.9 110.7z" stroke="#85A64C" stroke-width="2" fill="#85A64C" fill-rule="nonzero" />
        <path d="M42.9 110.7C 42.7 110.7 42.4 110.7 42.2 110.6C 41.100002 110.2 40.5 109 40.9 107.9L40.9 107.9L43.9 99.6C 44.300003 98.5 45.5 97.9 46.600002 98.299995C 47.7 98.7 48.300003 99.899994 47.9 100.99999L47.9 100.99999L44.9 109.299995C 44.6 110.1 43.8 110.7 42.9 110.7z" stroke="#85A64C" stroke-width="2" fill="#85A64C" fill-rule="nonzero" />
        <path d="M30.9 103.7C 30.4 103.7 29.9 103.5 29.5 103.2C 28.6 102.399994 28.5 101.1 29.2 100.2L29.2 100.2L34.9 93.399994C 35.7 92.49999 37 92.399994 37.9 93.09999C 38.800003 93.899994 38.9 95.19999 38.2 96.09999L38.2 96.09999L32.5 102.899994C 32.1 103.5 31.5 103.7 30.9 103.7z" stroke="#85A64C" stroke-width="2" fill="#85A64C" fill-rule="nonzero" />
        <path d="M30.9 103.7C 30.4 103.7 29.9 103.5 29.5 103.2C 28.6 102.399994 28.5 101.1 29.2 100.2L29.2 100.2L34.9 93.399994C 35.7 92.49999 37 92.399994 37.9 93.09999C 38.800003 93.899994 38.9 95.19999 38.2 96.09999L38.2 96.09999L32.5 102.899994C 32.1 103.5 31.5 103.7 30.9 103.7z" stroke="#85A64C" stroke-width="2" fill="#85A64C" fill-rule="nonzero" />
        <path d="M22 93.1C 21.3 93.1 20.5 92.7 20.1 92C 19.5 91 19.9 89.7 20.9 89.1L20.9 89.1L28.599998 84.7C 29.599998 84.1 30.899998 84.5 31.499998 85.5C 32.1 86.5 31.699999 87.8 30.699999 88.4L30.699999 88.4L23 92.8C 22.7 93 22.4 93.1 22 93.1z" stroke="#85A64C" stroke-width="2" fill="#85A64C" fill-rule="nonzero" />
        <path d="M22 93.1C 21.3 93.1 20.5 92.7 20.1 92C 19.5 91 19.9 89.7 20.9 89.1L20.9 89.1L28.599998 84.7C 29.599998 84.1 30.899998 84.5 31.499998 85.5C 32.1 86.5 31.699999 87.8 30.699999 88.4L30.699999 88.4L23 92.8C 22.7 93 22.4 93.1 22 93.1z" stroke="#85A64C" stroke-width="2" fill="#85A64C" fill-rule="nonzero" />
        <path d="M17.2 80.1C 16.2 80.1 15.300001 79.4 15.1 78.299995C 14.900001 77.1 15.700001 75.99999 16.800001 75.799995L16.800001 75.799995L25.5 74.299995C 26.7 74.1 27.8 74.899994 28 75.99999C 28.2 77.19999 27.4 78.299995 26.3 78.49999L26.3 78.49999L17.599998 79.99999C 17.5 80.1 17.4 80.1 17.2 80.1z" stroke="#85A64C" stroke-width="2" fill="#85A64C" fill-rule="nonzero" />
        <path d="M17.2 80.1C 16.2 80.1 15.300001 79.4 15.1 78.299995C 14.900001 77.1 15.700001 75.99999 16.800001 75.799995L16.800001 75.799995L25.5 74.299995C 26.7 74.1 27.8 74.899994 28 75.99999C 28.2 77.19999 27.4 78.299995 26.3 78.49999L26.3 78.49999L17.599998 79.99999C 17.5 80.1 17.4 80.1 17.2 80.1z" stroke="#85A64C" stroke-width="2" fill="#85A64C" fill-rule="nonzero" />
        <path d="M26 67.8C 25.9 67.8 25.8 67.8 25.6 67.8L25.6 67.8L16.900002 66.3C 15.700002 66.100006 15.000002 65 15.200002 63.800003C 15.400002 62.600002 16.500002 61.9 17.7 62.100002L17.7 62.100002L26.400002 63.600002C 27.600002 63.800003 28.300001 64.9 28.100002 66.100006C 27.9 67.1 27 67.8 26 67.8z" stroke="#85A64C" stroke-width="2" fill="#85A64C" fill-rule="nonzero" />
        <path d="M26 67.8C 25.9 67.8 25.8 67.8 25.6 67.8L25.6 67.8L16.900002 66.3C 15.700002 66.100006 15.000002 65 15.200002 63.800003C 15.400002 62.600002 16.500002 61.9 17.7 62.100002L17.7 62.100002L26.400002 63.600002C 27.600002 63.800003 28.300001 64.9 28.100002 66.100006C 27.9 67.1 27 67.8 26 67.8z" stroke="#85A64C" stroke-width="2" fill="#85A64C" fill-rule="nonzero" />
        <path d="M29.7 57.7C 29.300001 57.7 29 57.600002 28.6 57.4L28.6 57.4L20.900002 53C 19.900002 52.4 19.500002 51.1 20.100002 50.1C 20.700003 49.1 22.000002 48.699997 23.000002 49.3L23.000002 49.3L30.7 53.7C 31.7 54.3 32.100002 55.600002 31.5 56.600002C 31.1 57.3 30.4 57.7 29.7 57.7z" stroke="#85A64C" stroke-width="2" fill="#85A64C" fill-rule="nonzero" />
        <path d="M29.7 57.7C 29.300001 57.7 29 57.600002 28.6 57.4L28.6 57.4L20.900002 53C 19.900002 52.4 19.500002 51.1 20.100002 50.1C 20.700003 49.1 22.000002 48.699997 23.000002 49.3L23.000002 49.3L30.7 53.7C 31.7 54.3 32.100002 55.600002 31.5 56.600002C 31.1 57.3 30.4 57.7 29.7 57.7z" stroke="#85A64C" stroke-width="2" fill="#85A64C" fill-rule="nonzero" />
        <path d="M36.6 49.4C 36 49.4 35.399998 49.100002 35 48.600002L35 48.600002L29.3 41.800003C 28.5 40.9 28.699999 39.500004 29.599998 38.800003C 30.499998 38.000004 31.899998 38.200005 32.6 39.100002L32.6 39.100002L38.3 45.9C 39.1 46.800003 38.899998 48.2 38 48.9C 37.6 49.2 37.1 49.4 36.6 49.4z" stroke="#85A64C" stroke-width="2" fill="#85A64C" fill-rule="nonzero" />
        <path d="M36.6 49.4C 36 49.4 35.399998 49.100002 35 48.600002L35 48.600002L29.3 41.800003C 28.5 40.9 28.699999 39.500004 29.599998 38.800003C 30.499998 38.000004 31.899998 38.200005 32.6 39.100002L32.6 39.100002L38.3 45.9C 39.1 46.800003 38.899998 48.2 38 48.9C 37.6 49.2 37.1 49.4 36.6 49.4z" stroke="#85A64C" stroke-width="2" fill="#85A64C" fill-rule="nonzero" />
        <path d="M45.9 44C 45 44 44.2 43.5 43.9 42.6L43.9 42.6L40.9 34.3C 40.5 33.2 41.100002 32 42.2 31.599998C 43.3 31.199999 44.5 31.8 44.9 32.899998L44.9 32.899998L47.9 41.199997C 48.300003 42.299995 47.7 43.499996 46.600002 43.899998C 46.4 44 46.2 44 45.9 44z" stroke="#85A64C" stroke-width="2" fill="#85A64C" fill-rule="nonzero" />
        <path d="M45.9 44C 45 44 44.2 43.5 43.9 42.6L43.9 42.6L40.9 34.3C 40.5 33.2 41.100002 32 42.2 31.599998C 43.3 31.199999 44.5 31.8 44.9 32.899998L44.9 32.899998L47.9 41.199997C 48.300003 42.299995 47.7 43.499996 46.600002 43.899998C 46.4 44 46.2 44 45.9 44z" stroke="#85A64C" stroke-width="2" fill="#85A64C" fill-rule="nonzero" />
        <path d="M56.5 42.1C 55.3 42.1 54.4 41.1 54.4 40L54.4 40L54.4 31.1C 54.4 29.9 55.4 29 56.5 29C 57.6 29 58.6 30 58.6 31.1L58.6 31.1L58.6 40C 58.7 41.2 57.7 42.1 56.5 42.1z" stroke="#85A64C" stroke-width="2" fill="#85A64C" fill-rule="nonzero" />
	</g>
</g>
</svg>

<?xml version="1.0" encoding="utf-8"?>
<!-- Generator: Adobe Illustrator 25.0.0, SVG Export Plug-In . SVG Version: 6.00 Build 0)  -->
<svg version="1.1" id="Capa_1" xmlns="http://www.w3.org/2000/svg" xmlns:xlink="http://www.w3.org/1999/xlink" x="0px" y="0px"
	 viewBox="0 0 141.7 141.7" style="enable-background:new 0 0 141.7 141.7;" xml:space="preserve">
<style type="text/css">
	.st0{fill:#85A64C;stroke:#85A64C;stroke-width:2;stroke-miterlimit:10;}
</style>
<g>
	<path class="st0" d="M117.5,50.3c-0.1,0-0.2,0-0.4,0l-8.6-1.4c-0.9-0.2-1.6-0.9-1.8-1.8l-1.4-8.6c-0.2-1.2,0.6-2.3,1.8-2.5
		c1.2-0.2,2.3,0.6,2.5,1.8l1.2,7.1l7.1,1.2c1.2,0.2,1.9,1.3,1.8,2.5C119.4,49.6,118.5,50.3,117.5,50.3z"/>
	<path class="st0" d="M118.9,73.2H95.8c-0.7,0-1.3-0.3-1.7-0.8c-0.4-0.5-0.5-1.2-0.4-1.9l1-3.7l-3.3-1.5c-1.1-0.5-1.5-1.8-1-2.8
		c0.5-1.1,1.8-1.5,2.8-1l4.9,2.3c0.9,0.4,1.4,1.5,1.2,2.5l-0.7,2.8h20.4c1.2,0,2.1,1,2.1,2.1C121.1,72.2,120.1,73.2,118.9,73.2z"/>
	<path class="st0" d="M124,80.3c-0.7,0-1.3-0.3-1.7-0.9l-5.1-7.1c-0.5-0.7-0.5-1.7,0-2.5l5.1-7.1c0.7-1,2-1.2,3-0.5
		c1,0.7,1.2,2,0.5,3l-4.2,5.9l4.2,5.9c0.7,1,0.5,2.3-0.5,3C124.9,80.1,124.4,80.3,124,80.3z"/>
	<path class="st0" d="M108.9,97.5c-0.5,0-1.1-0.2-1.5-0.6L91,80.5c-0.5-0.5-0.7-1.2-0.6-1.9c0.1-0.7,0.5-1.3,1.2-1.6l3.2-1.6l-1-3.9
		c-0.3-1.1,0.4-2.3,1.5-2.6c1.1-0.3,2.3,0.4,2.6,1.5l1.4,5.6c0.2,1-0.2,2-1.1,2.4l-2,1l14.3,14.3c0.8,0.8,0.8,2.2,0,3
		C110,97.3,109.4,97.5,108.9,97.5z"/>
	<path class="st0" d="M107.4,106.1c-0.1,0-0.2,0-0.4,0c-1.2-0.2-1.9-1.3-1.8-2.5l1.4-8.6c0.2-0.9,0.9-1.6,1.8-1.8l8.6-1.4
		c1.2-0.2,2.3,0.6,2.5,1.8c0.2,1.2-0.6,2.3-1.8,2.5l-7.1,1.2l-1.2,7.1C109.3,105.4,108.4,106.1,107.4,106.1z"/>
	<path class="st0" d="M84.5,107.6c-1.2,0-2.1-1-2.1-2.1V82.3c0-0.7,0.3-1.3,0.8-1.7c0.5-0.4,1.2-0.5,1.9-0.4l3.7,1l1.9-3.3
		c0.6-1,1.9-1.4,2.9-0.8c1,0.6,1.4,1.9,0.8,2.9l-2.7,4.7c-0.5,0.8-1.5,1.3-2.4,1l-2.6-0.7v20.4C86.7,106.6,85.7,107.6,84.5,107.6z"
		/>
	<path class="st0" d="M77.4,112.6c-0.7,0-1.3-0.3-1.7-0.9c-0.7-1-0.5-2.3,0.5-3l7.1-5.1c0.7-0.5,1.7-0.5,2.5,0l7.1,5.1
		c1,0.7,1.2,2,0.5,3c-0.7,1-2,1.2-3,0.5l-5.9-4.2l-5.9,4.2C78.3,112.5,77.9,112.6,77.4,112.6z"/>
	<path class="st0" d="M92.3,65.4c-0.2,0-0.3,0-0.5-0.1c-0.7-0.2-1.3-0.7-1.5-1.4L89,60.4l-3.7,1.4c-0.7,0.2-1.4,0.2-2-0.2
		c-0.6-0.4-0.9-1.1-0.9-1.8V36.6c0-1.2,1-2.1,2.1-2.1s2.1,1,2.1,2.1v20.1l2.9-1.1c0.5-0.2,1.1-0.2,1.7,0.1c0.5,0.2,0.9,0.7,1.1,1.2
		l0.9,2.5l14.2-14.2c0.8-0.8,2.2-0.8,3,0c0.8,0.8,0.8,2.2,0,3L93.8,64.8C93.4,65.2,92.9,65.4,92.3,65.4z"/>
	<path class="st0" d="M84.5,38.8c-0.4,0-0.9-0.1-1.2-0.4l-7.1-5.1c-1-0.7-1.2-2-0.5-3c0.7-1,2-1.2,3-0.5l5.9,4.2l5.9-4.2
		c1-0.7,2.3-0.5,3,0.5c0.7,1,0.5,2.3-0.5,3l-7.1,5.1C85.4,38.6,85,38.8,84.5,38.8z"/>
	<path class="st0" d="M68.9,117.5c-1.2,0-2.1-1-2.1-2.1V26.7c0-1.2,1-2.1,2.1-2.1s2.1,1,2.1,2.1v88.7
		C71.1,116.6,70.1,117.5,68.9,117.5z"/>
	<path class="st0" d="M56.5,96.7c-14.2,0-25.7-11.5-25.7-25.7c0-14.2,11.5-25.7,25.7-25.7c1.2,0,2.1,1,2.1,2.1s-1,2.1-2.1,2.1
		c-11.8,0-21.4,9.6-21.4,21.4c0,11.8,9.6,21.4,21.4,21.4c1.2,0,2.1,1,2.1,2.1S57.7,96.7,56.5,96.7z"/>
	<path class="st0" d="M56.5,113.1c-1.2,0-2.1-1-2.1-2.1v-8.9c0-1.2,1-2.1,2.1-2.1s2.1,1,2.1,2.1v8.9
		C58.7,112.1,57.7,113.1,56.5,113.1z"/>
	<path class="st0" d="M56.5,113.1c-1.2,0-2.1-1-2.1-2.1v-8.9c0-1.2,1-2.1,2.1-2.1s2.1,1,2.1,2.1v8.9
		C58.7,112.1,57.7,113.1,56.5,113.1z"/>
	<path class="st0" d="M42.9,110.7c-0.2,0-0.5,0-0.7-0.1c-1.1-0.4-1.7-1.6-1.3-2.7l3-8.3c0.4-1.1,1.6-1.7,2.7-1.3
		c1.1,0.4,1.7,1.6,1.3,2.7l-3,8.3C44.6,110.1,43.8,110.7,42.9,110.7z"/>
	<path class="st0" d="M56.5,113.1c-1.2,0-2.1-1-2.1-2.1v-8.9c0-1.2,1-2.1,2.1-2.1s2.1,1,2.1,2.1v8.9
		C58.7,112.1,57.7,113.1,56.5,113.1z"/>
	<path class="st0" d="M56.5,113.1c-1.2,0-2.1-1-2.1-2.1v-8.9c0-1.2,1-2.1,2.1-2.1s2.1,1,2.1,2.1v8.9
		C58.7,112.1,57.7,113.1,56.5,113.1z"/>
	<path class="st0" d="M56.5,113.1c-1.2,0-2.1-1-2.1-2.1v-8.9c0-1.2,1-2.1,2.1-2.1s2.1,1,2.1,2.1v8.9
		C58.7,112.1,57.7,113.1,56.5,113.1z"/>
	<path class="st0" d="M42.9,110.7c-0.2,0-0.5,0-0.7-0.1c-1.1-0.4-1.7-1.6-1.3-2.7l3-8.3c0.4-1.1,1.6-1.7,2.7-1.3
		c1.1,0.4,1.7,1.6,1.3,2.7l-3,8.3C44.6,110.1,43.8,110.7,42.9,110.7z"/>
	<path class="st0" d="M42.9,110.7c-0.2,0-0.5,0-0.7-0.1c-1.1-0.4-1.7-1.6-1.3-2.7l3-8.3c0.4-1.1,1.6-1.7,2.7-1.3
		c1.1,0.4,1.7,1.6,1.3,2.7l-3,8.3C44.6,110.1,43.8,110.7,42.9,110.7z"/>
	<path class="st0" d="M30.9,103.7c-0.5,0-1-0.2-1.4-0.5c-0.9-0.8-1-2.1-0.3-3l5.7-6.8c0.8-0.9,2.1-1,3-0.3c0.9,0.8,1,2.1,0.3,3
		l-5.7,6.8C32.1,103.5,31.5,103.7,30.9,103.7z"/>
	<path class="st0" d="M30.9,103.7c-0.5,0-1-0.2-1.4-0.5c-0.9-0.8-1-2.1-0.3-3l5.7-6.8c0.8-0.9,2.1-1,3-0.3c0.9,0.8,1,2.1,0.3,3
		l-5.7,6.8C32.1,103.5,31.5,103.7,30.9,103.7z"/>
	<path class="st0" d="M22,93.1c-0.7,0-1.5-0.4-1.9-1.1c-0.6-1-0.2-2.3,0.8-2.9l7.7-4.4c1-0.6,2.3-0.2,2.9,0.8c0.6,1,0.2,2.3-0.8,2.9
		l-7.7,4.4C22.7,93,22.4,93.1,22,93.1z"/>
	<path class="st0" d="M22,93.1c-0.7,0-1.5-0.4-1.9-1.1c-0.6-1-0.2-2.3,0.8-2.9l7.7-4.4c1-0.6,2.3-0.2,2.9,0.8c0.6,1,0.2,2.3-0.8,2.9
		l-7.7,4.4C22.7,93,22.4,93.1,22,93.1z"/>
	<path class="st0" d="M17.2,80.1c-1,0-1.9-0.7-2.1-1.8c-0.2-1.2,0.6-2.3,1.7-2.5l8.7-1.5c1.2-0.2,2.3,0.6,2.5,1.7
		c0.2,1.2-0.6,2.3-1.7,2.5l-8.7,1.5C17.5,80.1,17.4,80.1,17.2,80.1z"/>
	<path class="st0" d="M17.2,80.1c-1,0-1.9-0.7-2.1-1.8c-0.2-1.2,0.6-2.3,1.7-2.5l8.7-1.5c1.2-0.2,2.3,0.6,2.5,1.7
		c0.2,1.2-0.6,2.3-1.7,2.5l-8.7,1.5C17.5,80.1,17.4,80.1,17.2,80.1z"/>
	<path class="st0" d="M26,67.8c-0.1,0-0.2,0-0.4,0l-8.7-1.5c-1.2-0.2-1.9-1.3-1.7-2.5c0.2-1.2,1.3-1.9,2.5-1.7l8.7,1.5
		c1.2,0.2,1.9,1.3,1.7,2.5C27.9,67.1,27,67.8,26,67.8z"/>
	<path class="st0" d="M26,67.8c-0.1,0-0.2,0-0.4,0l-8.7-1.5c-1.2-0.2-1.9-1.3-1.7-2.5c0.2-1.2,1.3-1.9,2.5-1.7l8.7,1.5
		c1.2,0.2,1.9,1.3,1.7,2.5C27.9,67.1,27,67.8,26,67.8z"/>
	<path class="st0" d="M29.7,57.7c-0.4,0-0.7-0.1-1.1-0.3l-7.7-4.4c-1-0.6-1.4-1.9-0.8-2.9c0.6-1,1.9-1.4,2.9-0.8l7.7,4.4
		c1,0.6,1.4,1.9,0.8,2.9C31.1,57.3,30.4,57.7,29.7,57.7z"/>
	<path class="st0" d="M29.7,57.7c-0.4,0-0.7-0.1-1.1-0.3l-7.7-4.4c-1-0.6-1.4-1.9-0.8-2.9c0.6-1,1.9-1.4,2.9-0.8l7.7,4.4
		c1,0.6,1.4,1.9,0.8,2.9C31.1,57.3,30.4,57.7,29.7,57.7z"/>
	<path class="st0" d="M36.6,49.4c-0.6,0-1.2-0.3-1.6-0.8l-5.7-6.8c-0.8-0.9-0.6-2.3,0.3-3c0.9-0.8,2.3-0.6,3,0.3l5.7,6.8
		c0.8,0.9,0.6,2.3-0.3,3C37.6,49.2,37.1,49.4,36.6,49.4z"/>
	<path class="st0" d="M36.6,49.4c-0.6,0-1.2-0.3-1.6-0.8l-5.7-6.8c-0.8-0.9-0.6-2.3,0.3-3c0.9-0.8,2.3-0.6,3,0.3l5.7,6.8
		c0.8,0.9,0.6,2.3-0.3,3C37.6,49.2,37.1,49.4,36.6,49.4z"/>
	<path class="st0" d="M45.9,44c-0.9,0-1.7-0.5-2-1.4l-3-8.3c-0.4-1.1,0.2-2.3,1.3-2.7c1.1-0.4,2.3,0.2,2.7,1.3l3,8.3
		c0.4,1.1-0.2,2.3-1.3,2.7C46.4,44,46.2,44,45.9,44z"/>
	<path class="st0" d="M45.9,44c-0.9,0-1.7-0.5-2-1.4l-3-8.3c-0.4-1.1,0.2-2.3,1.3-2.7c1.1-0.4,2.3,0.2,2.7,1.3l3,8.3
		c0.4,1.1-0.2,2.3-1.3,2.7C46.4,44,46.2,44,45.9,44z"/>
	<path class="st0" d="M56.5,42.1c-1.2,0-2.1-1-2.1-2.1v-8.9c0-1.2,1-2.1,2.1-2.1s2.1,1,2.1,2.1V40C58.7,41.2,57.7,42.1,56.5,42.1z"
		/>
</g>
</svg>
